src/lib/packages/icons/src/assets/line/keyhole-circle.svg

<svg xmlns="http://www.w3.org/2000/svg" width="24" height="24" fill="none"><path fill="currentColor" d="M12 1.25C6.072 1.25 1.25 6.072 1.25 12S6.072 22.75 12 22.75 22.75 17.928 22.75 12 17.928 1.25 12 1.25Zm0 20c-5.101 0-9.25-4.149-9.25-9.25S6.899 2.75 12 2.75s9.25 4.149 9.25 9.25-4.149 9.25-9.25 9.25Zm0-13a2.253 2.253 0 0 0-2.25 2.25c0 .976.629 1.801 1.5 2.112V16a.75.75 0 0 0 1.5 0v-3.388a2.247 2.247 0 0 0 1.5-2.112c0-1.241-1.01-2.25-2.25-2.25Zm0 3a.75.75 0 0 1 0-1.5.75.75 0 0 1 0 1.5Z"/></svg>

<svg width="24" height="24" viewBox="0 0 24 24" fill="none" xmlns="http://www.w3.org/2000/svg">
<path d="M12 1.25C6.072 1.25 1.25 6.072 1.25 12C1.25 17.928 6.072 22.75 12 22.75C17.928 22.75 22.75 17.928 22.75 12C22.75 6.072 17.928 1.25 12 1.25ZM12 21.25C6.899 21.25 2.75 17.101 2.75 12C2.75 6.899 6.899 2.75 12 2.75C17.101 2.75 21.25 6.899 21.25 12C21.25 17.101 17.101 21.25 12 21.25ZM12 8.25C10.76 8.25 9.75 9.259 9.75 10.5C9.75 11.476 10.379 12.3011 11.25 12.6121V16C11.25 16.414 11.586 16.75 12 16.75C12.414 16.75 12.75 16.414 12.75 16V12.6121C13.621 12.3011 14.25 11.477 14.25 10.5C14.25 9.259 13.24 8.25 12 8.25ZM12 11.25C11.587 11.25 11.25 10.914 11.25 10.5C11.25 10.086 11.587 9.75 12 9.75C12.413 9.75 12.75 10.086 12.75 10.5C12.75 10.914 12.413 11.25 12 11.25Z" fill="currentColor"/>
</svg>
